X:1
T:Yiddish song
T:Trad. arr. Wim Verkaik 24-06-99
T:Ot azoi neit a shnaider
%%score 1 2 3 4
L:1/8
Q:1/4=83
M:2/4
K:C
V:1 treble nm="MusicXML Part"
V:2 treble nm="MusicXML Part"
V:3 treble-8 nm="MusicXML Part"
V:4 bass nm="MusicXML Part"
V:1
"^Refrein" EA c2 | c/B/A [Fd][Ec] | EA c2 | [Ec][DB] [CA]2 | EA c2 | cA[Fd][Ec] | EA[A-c][Ae] | %7
w: Ot a- zoi|neit _ a shnai- der,|Ot a- zoi|neit er gut!|Ot a- zoi|neit a shnai- der,|Ot a- zoi _|
w: |||||||
 [Ad][^G-c]/[GB]/ A>[ce]!fine! |] [ce][Bd][Ac][Bd] | [Ac][Bd] [Ac]>[Bd] | [ce][df][ce][Bd] | %11
w: neit er _ gut. 1.A|neit un neit a|gan- tze voch, Far-|dint a gro- shn|
w: * * * * 2.A|shnai- der neit un|neit un neit, Un|hat ka- do- ches,|
 [Ac][GB] A2 | [ce][Bd][Ac][Bd] | [Ac][Bd] [Ac]>[Bd] | [ce][df][ce][Bd] | [Ac][GB] [EA]2 :| %16
w: mit a loch!|neit un neit a|gan- tze voch, Far-|dint a gro- shn|mit a loch!|
w: nit kain broit!|shnai- der neit un|neit un neit, Un|hat ka- do- ches,|nit kain broit!|
V:2
"^\n" EE E2 | EEEE | EE E2 | EE E2 | EE E2 | EEEE | EE E2 | FE/D/ C>A |]"^\n" AFEF | EF E>F | %10
w: Ot a- zoi|neit a shnai- der,|Ot a- zoi|neit er gut!|Ot a- zoi|neit a shnai- der,|Ot a- zoi|neit er _ gut. 1.A|neit un neit a|gan- tze voch, Far-|
w: |||||||* * * * 2.A|shnai- der neit un|neit un neit, Un|
 AAAF | FE E2 | AFEF | EF E>F | AA^GF | FE ^C2 :| %16
w: dint a gro- shn|mit a loch!|neit un neit a|gan- tze voch, Far-|dint a gro- shn|mit a loch!|
w: hat ka- do- ches,|nit kain broit!|shnai- der neit un|neit un neit, Un|hat ka- do- ches,|nit kain broit!|
V:3
 EA A2 | e/d/c BA | EA A2 | AG A2 | EA A2 | ecBA | EA A2 | AE E2 |] E2 A2 | c4 | c2 A2 | d2 c2 | %12
w: Ot a- zoi|neit _ a shnai- der,|Ot a- zoi|neit er gut!|Ot a- zoi|neit a shnai- der,|Ot a- zoi|neit er gut.|Ot a-|zoi|neit a|shnai- der,|
 E2 A2 | c4 | c2 B2 | A4 :| %16
w: Ot a-|zoi|neit er|gut!|
V:4
 A,,A,, A,,2 | A,,A,,A,,A,, | A,,A,, A,,2 | A,,A,, A,,2 | A,,A,, A,,2 | A,,A,,A,,A,, | A,G,F,E, | %7
w: Ot a- zoi|neit a shnai- der,|Ot a- zoi|neit er gut!|Ot a- zoi|neit a shnai- der,|Ot a- zoi _|
 D,E, A,,2 |] E,2 A,2 | C4 | C2 A,2 | D2 C2 | E,2 A,2 | C4 | C2 B,2 | A,4 :| %16
w: neit er gut.|Ot a-|zoi|neit a|shnai- der,|Ot a-|zoi|neit er|gut!|

